X:036
T:Punch. EHo.036
A:England; East Yorkshire
M:C|
L:1/8
Q:1/2=88
B:Edward Holmes MS, c1846, Beverley, Yorkshire.
N:NB1 = triplet not indicated in MS.
C:"T.P."
O:
Z:Village Music Project 2018, Jake Wade. Beverley, East Yorks.
K:A
e2 | {g/}a2A2{^d/}e2E2 | cAcA{^d/}e2E2 | FAEA FAEA | dBcAB2e2 |
{g/}a2A2{^d/}e2E2 | (3(efe) "NB1"(3(dcB) c2A2 | (3(fag) (3(fed) (3(ced) (3cBA | {^d/}e2E2A2 :|
|: B2 | B>^df2 B>eg2 | (3fgf (3e^dcd2B2 | (3Bba (3gfe (3^dfe (3dcB | "NB1"(3ce^d (3cB^A B2(!turn!cd) |
"_>"{^d/}e2E2 cAeA |{^d/}e2E2 FAEA | =DACA BcdB | cABGA2 :|

